src/images/real-ruoshin.svg

<svg width="183" height="183" viewBox="0 0 183 183" fill="none" xmlns="http://www.w3.org/2000/svg">
<circle cx="91.5" cy="91.5" r="91.5" fill="url(#paint0_linear)"/>
<mask id="mask0" mask-type="alpha" maskUnits="userSpaceOnUse" x="0" y="0" width="183" height="183">
<circle cx="91.5" cy="91.5" r="91.5" fill="url(#paint1_linear)"/>
</mask>
<g mask="url(#mask0)">
<path d="M102.125 153.175L97.7362 154.389C94.4947 155.28 91.0722 155.28 87.8307 154.389L83.1322 153.116C82.3433 152.903 81.6469 152.437 81.1508 151.789C80.6548 151.142 80.387 150.349 80.3889 149.534V133.674H104.839V149.594C104.841 150.404 104.577 151.193 104.087 151.84C103.597 152.487 102.908 152.956 102.125 153.175V153.175Z" fill="#FFD0A9"/>
<path d="M29.6638 85.6081C29.6638 118.541 53.535 143.017 93.9854 143.017C127.812 143.017 148.85 118.541 148.85 85.6081C148.85 52.6753 124.76 25.9707 90.9928 25.9707C57.2259 25.9707 29.6638 52.6753 29.6638 85.6081Z" fill="#FFD0A9"/>
<path d="M79.1746 83.5526L79.1903 83.5523H79.206C79.8227 83.5523 80.4499 83.3463 80.8909 83.0288C81.3272 82.7146 81.4526 82.4013 81.4526 82.1658C81.4526 81.9355 81.3327 81.6315 80.8959 81.3197C80.4527 81.0034 79.8146 80.7913 79.1769 80.7789L79.1746 80.7788C78.3194 80.7609 77.5109 80.4342 76.8748 79.8761C76.241 79.32 75.8149 78.5681 75.6405 77.7509L75.6405 77.7509L75.6377 77.7373C75.1262 75.2264 74.0102 72.5485 72.3284 70.5317C70.6664 68.5387 68.5128 67.249 65.8239 67.249C62.7718 67.249 60.2419 68.9473 58.4095 71.7419C56.5658 74.5537 55.5239 78.362 55.5239 82.1658C55.5239 85.9674 56.573 89.7757 58.4211 92.5885C60.2589 95.3855 62.7896 97.0824 65.8239 97.0824C68.5108 97.0824 70.6503 95.7947 72.3061 93.8018C73.9825 91.7841 75.1011 89.1022 75.6407 86.5798C75.8152 85.7629 76.2412 85.0113 76.8748 84.4553C77.5109 83.8972 78.3194 83.5706 79.1746 83.5526Z" fill="#FFEFE1" stroke="black" stroke-width="3"/>
<path d="M66.7924 89.6775C69.9823 89.6775 72.5682 86.2386 72.5682 81.9965C72.5682 77.7543 69.9823 74.3154 66.7924 74.3154C63.6025 74.3154 61.0166 77.7543 61.0166 81.9965C61.0166 86.2386 63.6025 89.6775 66.7924 89.6775Z" fill="black"/>
<path d="M109.674 82.5575L109.659 82.5572H109.643C109.026 82.5572 108.399 82.3512 107.958 82.0337C107.522 81.7195 107.396 81.4062 107.396 81.1707C107.396 80.9404 107.516 80.6363 107.953 80.3246C108.396 80.0082 109.034 79.7961 109.672 79.7838L109.674 79.7837C110.529 79.7658 111.338 79.4391 111.974 78.881C112.608 78.3249 113.034 77.573 113.208 76.7558L113.208 76.7558L113.211 76.7422C113.723 74.2313 114.839 71.5534 116.52 69.5366C118.182 67.5436 120.336 66.2539 123.025 66.2539C126.077 66.2539 128.607 67.9522 130.439 70.7468C132.283 73.5586 133.325 77.3669 133.325 81.1707C133.325 84.9722 132.276 88.7805 130.428 91.5934C128.59 94.3904 126.059 96.0873 123.025 96.0873C120.338 96.0873 118.199 94.7996 116.543 92.8067C114.866 90.789 113.748 88.1071 113.208 85.5847C113.034 84.7677 112.608 84.0161 111.974 83.4602C111.338 82.9021 110.529 82.5755 109.674 82.5575Z" fill="#FFEFE1" stroke="black" stroke-width="3"/>
<path d="M122.864 88.6824C126.054 88.6824 128.64 85.2434 128.64 81.0013C128.64 76.7592 126.054 73.3203 122.864 73.3203C119.675 73.3203 117.089 76.7592 117.089 81.0013C117.089 85.2434 119.675 88.6824 122.864 88.6824Z" fill="black"/>
<path d="M93.387 98.0054H95.6314C97.8759 98.0054 99.6914 96.7318 99.6914 94.4932C99.6914 92.2545 97.8759 90.981 95.6314 90.981" stroke="black" stroke-width="3" stroke-linecap="round" stroke-linejoin="round"/>
<path d="M86.3345 114.979C88.848 115.568 91.4237 115.852 94.0055 115.825C96.8094 115.84 99.6041 115.505 102.325 114.83" stroke="black" stroke-width="3" stroke-linecap="round" stroke-linejoin="round"/>
<ellipse cx="34.6638" cy="71.5" rx="10" ry="22.5" fill="black"/>
<ellipse cx="146.664" cy="71.5" rx="11" ry="22.5" fill="black"/>
<path d="M148.664 89C148.664 56.9675 122.696 31 90.6638 31C75.6476 31 61.9641 36.7065 51.6638 46.0693" stroke="black"/>
<path d="M51.6638 54.0693C61.9641 44.7065 75.6476 39 90.6638 39C120.155 39 144.505 61.0104 148.183 89.5" stroke="black"/>
<path d="M148.664 82C148.664 49.9675 122.696 24 90.6638 24C75.6476 24 61.9641 29.7065 51.6638 39.0693" stroke="black"/>
<path d="M87.5212 78.1387H101.487L100.489 82.1185C100.489 82.1185 97.4967 81.1236 94.0053 81.1236C90.5139 81.1235 88.5188 82.1185 88.5188 82.1185L87.5212 78.1387Z" fill="black"/>
<rect x="39.6392" y="76.1489" width="4.98772" height="4.97476" rx="1" fill="black"/>
<rect x="144.381" y="76.1489" width="4.98772" height="4.97476" rx="1" fill="black"/>
<path d="M88.5164 84.606C88.5164 96.9644 78.4711 106.987 66.0741 106.987C53.6771 106.987 43.6318 96.9644 43.6318 84.606C43.6318 72.2475 53.6771 62.2246 66.0741 62.2246C78.4711 62.2246 88.5164 72.2475 88.5164 84.606Z" stroke="black" stroke-width="2"/>
<path d="M145.376 84.606C145.376 96.9644 135.331 106.987 122.934 106.987C110.537 106.987 100.492 96.9644 100.492 84.606C100.492 72.2475 110.537 62.2246 122.934 62.2246C135.331 62.2246 145.376 72.2475 145.376 84.606Z" stroke="black" stroke-width="2"/>
</g>
<defs>
<linearGradient id="paint0_linear" x1="168.995" y1="21.1154" x2="-16.7016" y2="76.0549" gradientUnits="userSpaceOnUse">
<stop stop-color="#148EFF"/>
<stop offset="1" stop-color="#D0C9FF"/>
</linearGradient>
<linearGradient id="paint1_linear" x1="168.995" y1="21.1154" x2="-16.7016" y2="76.0549" gradientUnits="userSpaceOnUse">
<stop stop-color="#148EFF"/>
<stop offset="1" stop-color="#D0C9FF"/>
</linearGradient>
</defs>
</svg>

<svg xmlns="http://www.w3.org/2000/svg" viewBox="0 0 90 90" fill-rule="evenodd"><style><![CDATA[.B{fill-rule:nonzero}.C{stroke:#000}.D{stroke-width:3}]]></style><g transform="scale(.491803)"><circle cx="91.5" cy="91.5" r="91.5" fill="url(#A)"/><g fill="#ffd0a9" class="B"><path d="M102.125 153.175l-4.389 1.214c-3.241.891-6.664.891-9.905 0l-4.699-1.273a3.71 3.71 0 0 1-1.981-1.327 3.69 3.69 0 0 1-.762-2.255v-15.86h24.45v15.92c.002.81-.262 1.599-.752 2.246s-1.179 1.116-1.962 1.335z"/><path d="M29.664 85.608c0 32.933 23.871 57.409 64.321 57.409 33.827 0 54.865-24.476 54.865-57.409s-24.09-59.637-57.857-59.637-61.329 26.704-61.329 59.637z"/></g><path d="M79.175 83.553l.015-.001h.016c.617 0 1.244-.206 1.685-.523.436-.314.562-.628.562-.863 0-.23-.12-.534-.557-.846-.443-.317-1.081-.529-1.719-.541h-.002a3.6 3.6 0 0 1-2.3-.903c-.634-.556-1.06-1.308-1.234-2.125l-.003-.014c-.512-2.511-1.628-5.188-3.31-7.205-1.662-1.993-3.815-3.283-6.504-3.283-3.052 0-5.582 1.698-7.414 4.493-1.844 2.812-2.886 6.62-2.886 10.424s1.049 7.61 2.897 10.423c1.838 2.796 4.369 4.493 7.403 4.493 2.687 0 4.826-1.287 6.482-3.28 1.677-2.018 2.795-4.7 3.335-7.222.174-.817.6-1.569 1.234-2.125a3.6 3.6 0 0 1 2.3-.902z" fill="#ffefe1" class="B C D"/><path d="M66.792 89.678c3.19 0 5.776-3.439 5.776-7.681s-2.586-7.682-5.776-7.682-5.775 3.439-5.775 7.682 2.586 7.681 5.775 7.681z" class="B"/><path d="M109.674 82.558l-.015-.001h-.016c-.617 0-1.244-.206-1.685-.523-.436-.314-.562-.628-.562-.863s.12-.535.557-.846c.443-.317 1.081-.529 1.719-.541h.002c.855-.018 1.664-.345 2.3-.903s1.06-1.308 1.234-2.125l.003-.014c.512-2.511 1.628-5.189 3.309-7.205 1.662-1.993 3.816-3.283 6.505-3.283 3.052 0 5.582 1.698 7.414 4.493 1.844 2.812 2.886 6.62 2.886 10.424s-1.049 7.61-2.897 10.422c-1.838 2.797-4.369 4.494-7.403 4.494-2.687 0-4.826-1.287-6.482-3.28-1.677-2.018-2.795-4.7-3.335-7.222-.174-.817-.6-1.569-1.234-2.125a3.6 3.6 0 0 0-2.3-.902z" fill="#ffefe1" class="B C D"/><path d="M122.864 88.682c3.19 0 5.776-3.439 5.776-7.681s-2.586-7.681-5.776-7.681-5.775 3.439-5.775 7.681 2.586 7.681 5.775 7.681z" class="B"/><path d="M93.387 98.005h2.244c2.245 0 4.06-1.273 4.06-3.512s-1.815-3.512-4.06-3.512m-9.296 23.998c2.513.589 5.089.873 7.671.846 2.803.015 5.598-.32 8.319-.995" fill="none" stroke-linecap="round" stroke-linejoin="round" class="C D"/><ellipse cx="34.664" cy="71.5" rx="10" ry="22.5"/><ellipse cx="146.664" cy="71.5" rx="11" ry="22.5"/><path d="M148.664 89c0-32.032-25.968-58-58-58a57.79 57.79 0 0 0-39 15.069m0 8a57.79 57.79 0 0 1 39-15.069c29.491 0 53.841 22.01 57.519 50.5m.481-7.5c0-32.032-25.968-58-58-58-15.016 0-28.7 5.706-39 15.069" fill="none" class="C"/><path d="M87.521 78.139h13.966l-.998 3.98s-2.992-.995-6.484-.995-5.486.995-5.486.995l-.998-3.98z" class="B"/><path d="M39.639 76.149h4.988v4.975h-4.988zm104.742 0h4.988v4.975h-4.988z"/><path d="M88.516 84.606c0 12.358-10.045 22.381-22.442 22.381S43.632 96.964 43.632 84.606s10.045-22.381 22.442-22.381 22.442 10.023 22.442 22.381zm56.86 0c0 12.358-10.045 22.381-22.442 22.381s-22.442-10.023-22.442-22.381 10.045-22.381 22.442-22.381 22.442 10.023 22.442 22.381z" fill="none" stroke-width="2" class="C"/></g><defs><linearGradient id="A" x1="168.995" y1="21.115" x2="-16.702" y2="76.055" gradientUnits="userSpaceOnUse"><stop offset="0" stop-color="#148eff"/><stop offset="1" stop-color="#d0c9ff"/></linearGradient></defs></svg>
